icons/sleepy.svg

<svg width="48" height="48" viewBox="0 0 48 48" fill="none" xmlns="http://www.w3.org/2000/svg">
<path d="M24 5.99976C14.0589 5.99976 6 14.0586 6 23.9998C6 33.9409 14.0589 41.9998 24 41.9998C33.9411 41.9998 42 33.9409 42 23.9998C42 22.2014 41.7363 20.4647 41.2454 18.8261L39.3293 19.401C39.7656 20.8575 40 22.4012 40 23.9998C40 32.8363 32.8366 39.9998 24 39.9998C15.1634 39.9998 8 32.8363 8 23.9998C8 15.1632 15.1634 7.99976 24 7.99976V5.99976Z" fill="black"/>
<path d="M18.164 15.3174C17.8879 14.8391 18.0518 14.2275 18.5301 13.9514L21.1986 12.4107C21.5266 12.2214 21.9335 12.2336 22.2495 12.4423C22.5656 12.651 22.7367 13.0203 22.6914 13.3964L22.2395 17.1467L23.5095 16.4135C23.9878 16.1373 24.5994 16.3012 24.8756 16.7795C25.1517 17.2578 24.9878 17.8694 24.5095 18.1455L21.5075 19.8788C21.1795 20.0682 20.7726 20.056 20.4565 19.8473C20.1404 19.6386 19.9694 19.2692 20.0147 18.8931L20.4665 15.1428L19.5301 15.6835C19.0518 15.9596 18.4402 15.7957 18.164 15.3174Z" fill="black"/>
<path d="M26.5244 8.06909C25.9909 8.21203 25.6743 8.76037 25.8172 9.29384C25.9602 9.8273 26.5085 10.1439 27.042 10.0009L28.9738 9.48331L26.9251 14.5875C26.784 14.939 26.8536 15.3401 27.1049 15.6235C27.3562 15.9069 27.7461 16.0239 28.1119 15.9259L32.4586 14.7612C32.9921 14.6183 33.3087 14.0699 33.1657 13.5365C33.0228 13.003 32.4744 12.6864 31.941 12.8294L29.5262 13.4764L31.5749 8.37224C31.716 8.02073 31.6464 7.61967 31.3951 7.33627C31.1438 7.05287 30.7539 6.93578 30.3881 7.03382L26.5244 8.06909Z" fill="black"/>
<path d="M35.5556 6.99976C35.5556 6.44747 36.0033 5.99976 36.5556 5.99976H41C41.3635 5.99976 41.6984 6.19703 41.8746 6.51499C42.0509 6.83294 42.0407 7.22149 41.848 7.52975L37.8042 13.9998H41C41.5523 13.9998 42 14.4475 42 14.9998C42 15.552 41.5523 15.9998 41 15.9998H36C35.6365 15.9998 35.3016 15.8025 35.1254 15.4845C34.9491 15.1666 34.9593 14.778 35.152 14.4698L39.1958 7.99976H36.5556C36.0033 7.99976 35.5556 7.55204 35.5556 6.99976Z" fill="black"/>
<path d="M14.4039 28.6484C13.6309 28.4027 12.9643 27.8488 12.8884 27.1054C12.8732 26.9566 12.9255 26.8087 13.0309 26.7025C13.1363 26.5963 13.2837 26.5428 13.4326 26.5568C15.3637 26.7383 17.2142 25.8089 18.5076 23.6974C18.5968 23.5519 18.7541 23.4618 18.9248 23.4587C19.0955 23.4556 19.256 23.5398 19.3505 23.682C19.7526 24.2873 19.7926 25.2389 19.503 26.1068C19.2033 27.0052 18.5269 27.9021 17.371 28.4023C16.2592 28.8833 15.2116 28.9052 14.4039 28.6484Z" fill="black"/>
<path d="M31.7393 24.0034C32.2859 23.4041 32.5862 22.5912 32.2802 21.9094C32.2189 21.7729 32.0998 21.671 31.9554 21.6317C31.811 21.5924 31.6566 21.6198 31.5346 21.7064C29.953 22.8291 27.8858 22.9495 25.7099 21.7676C25.5598 21.6861 25.3786 21.6868 25.2292 21.7695C25.0798 21.8521 24.9829 22.0053 24.9722 22.1757C24.9266 22.901 25.3677 23.745 26.0525 24.3519C26.7612 24.9801 27.7955 25.4186 29.0466 25.2738C30.25 25.1345 31.1682 24.6297 31.7393 24.0034Z" fill="black"/>
<path fill-rule="evenodd" clip-rule="evenodd" d="M32.4478 31.8547C30.1969 28.7705 26.8611 27.14 23.7407 27.9761C20.6203 28.8122 18.5467 31.8922 18.1395 35.6886C18.0249 36.7575 19.0627 37.5118 20.1011 37.2336L31.5215 34.1735C32.5599 33.8952 33.0815 32.7231 32.4478 31.8547ZM24.2584 29.908C26.1517 29.4007 28.4733 30.2138 30.3471 32.4176L20.2402 35.1257C20.7611 32.2803 22.3651 30.4153 24.2584 29.908Z" fill="black"/>
</svg>

<svg
  xmlns="http://www.w3.org/2000/svg"
  width="24"
  height="24"
  viewBox="0 0 24 24"
  fill="none"
  stroke="currentColor"
  stroke-width="2"
  stroke-linecap="round"
  stroke-linejoin="round"
>
  <path d="M24 6C14.059 6 6 14.059 6 24c0 9.94 8.059 18 18 18s18-8.06 18-18c0-1.799-.264-3.535-.755-5.174l-1.916.575c.437 1.457.671 3 .671 4.599 0 8.836-7.163 16-16 16S8 32.836 8 24 15.163 8 24 8z" />
  <path d="M18.164 15.317a1 1 0 0 1 .366-1.366l2.669-1.54a1 1 0 0 1 1.492.985l-.451 3.75 1.27-.733a1 1 0 1 1 1 1.732l-3.003 1.734a1 1 0 0 1-1.492-.986l.451-3.75-.936.54a1 1 0 0 1-1.366-.366" />
  <path d="M26.524 8.07a1 1 0 1 0 .518 1.93l1.932-.517-2.049 5.105a1 1 0 0 0 1.187 1.338l4.347-1.165a1 1 0 1 0-.518-1.932l-2.415.647 2.049-5.104a1 1 0 0 0-1.187-1.338z" />
  <path d="M35.556 7a1 1 0 0 1 1-1H41a1 1 0 0 1 .848 1.53L37.804 14H41a1 1 0 1 1 0 2h-5a1 1 0 0 1-.848-1.53L39.196 8h-2.64a1 1 0 0 1-1-1" />
  <path d="M14.404 28.648c-.773-.245-1.44-.8-1.516-1.543a.5.5 0 0 1 .545-.548c1.93.181 3.781-.748 5.075-2.86a.5.5 0 0 1 .843-.015c.402.605.442 1.557.152 2.425a3.8 3.8 0 0 1-2.132 2.295c-1.112.481-2.16.503-2.967.246" />
  <path d="M31.74 24.003c.546-.599.846-1.412.54-2.094a.5.5 0 0 0-.745-.203c-1.582 1.123-3.65 1.244-5.825.062a.5.5 0 0 0-.738.408c-.045.725.396 1.569 1.08 2.176a3.8 3.8 0 0 0 2.995.922c1.203-.14 2.121-.644 2.692-1.27" />
  <path
    fill-rule="evenodd"
    d="M32.448 31.855c-2.251-3.085-5.587-4.715-8.707-3.879s-5.194 3.916-5.601 7.713c-.115 1.069.923 1.823 1.961 1.545l11.42-3.06c1.039-.279 1.56-1.45.927-2.32m-8.19-1.947c1.894-.507 4.215.306 6.09 2.51L20.24 35.126c.521-2.846 2.125-4.71 4.018-5.218"
    clip-rule="evenodd"
  />
</svg>
